assets/Person pouting/Light/Flat/person_pouting_flat_light.svg

<svg width="32" height="32" viewBox="0 0 32 32" fill="none" xmlns="http://www.w3.org/2000/svg">
<path d="M22.5129 30C24.1658 30 25.5 28.7215 25.5 27.151V23.6174C25.5 18.8557 21.3579 15 16.25 15C11.1421 15 7 18.8557 7 23.6174V27.151C7 28.7215 8.33423 30 9.98708 30H22.5129Z" fill="#FF8101"/>
<path d="M16.25 19C15.0068 19 14 18.0144 14 16.7974V14.2026C14 12.9856 15.0068 12 16.25 12C17.4932 12 18.5 12.9856 18.5 14.2026V16.7974C18.5 18.0144 17.4932 19 16.25 19Z" fill="#F4C6AD"/>
<path d="M10.5 25H7V23.6174C7 20.9575 8.29247 18.5803 10.3238 17H10.5V25Z" fill="#FF6723"/>
<path d="M22 25H25.5V23.6174C25.5 20.9575 24.2075 18.5803 22.1762 17H22V25Z" fill="#FF6723"/>
<path d="M22.39 5.22C22.1 4.71 21.64 4.36 21.12 4.18C20.56 3.99 20.07 3.63 19.77 3.12C19.36 2.45 18.62 2 17.78 2C17.46 2 17.15 2.07 16.87 2.19C16.49 2.35 16.06 2.35 15.68 2.19C15.39 2.07 15.09 2 14.76 2C13.93 2 13.2 2.43 12.79 3.09C12.47 3.6 11.98 3.98 11.41 4.18C10.87 4.37 10.4 4.75 10.11 5.29C9.69005 6.08 9.78005 7.01 10.25 7.71C10.42 7.96 10.52 8.27 10.52 8.57V12.65C10.52 13.56 11.1 14.37 11.96 14.67L13.81 15.31V8.04C13.95 7.9 14.08 7.74 14.18 7.55C14.35 7.26 14.44 6.95 14.48 6.64C14.57 6.65 14.66 6.66 14.76 6.66C15.34 6.66 15.86 6.45 16.27 6.1C16.68 6.45 17.2 6.66 17.78 6.66C17.87 6.66 17.96 6.65 18.06 6.64C18.09 6.95 18.19 7.26 18.36 7.55C18.47 7.73 18.59 7.89 18.73 8.04V15.31L20.58 14.67C21.44 14.37 22.02 13.56 22.02 12.65V8.58C22.02 8.27 22.11 7.97 22.29 7.72C22.78 7 22.86 6.03 22.39 5.22Z" fill="#212121"/>
<path d="M13 10.5C13 11.3284 12.3284 12 11.5 12C10.6716 12 10 11.3284 10 10.5C10 9.67157 10.6716 9 11.5 9C12.3284 9 13 9.67157 13 10.5Z" fill="#F4C6AD"/>
<path d="M22.5 10.5C22.5 11.3284 21.8284 12 21 12C20.1716 12 19.5 11.3284 19.5 10.5C19.5 9.67157 20.1716 9 21 9C21.8284 9 22.5 9.67157 22.5 10.5Z" fill="#F4C6AD"/>
<path d="M14.55 4.63998C12.7 4.64001 11.21 6.14 11.21 7.97998L11.1224 8.97239L11.404 13.1769C11.6679 15.0857 13.3324 16.5 15.3115 16.5H17.1993C19.1683 16.5 20.843 15.0758 21.1069 13.1769L21.41 8.3925L21.42 7.96998C21.4499 7.15226 20.7937 6.48371 19.9868 6.48H18.65C17.7 6.48 16.83 5.93 16.44 5.06C16.34 4.81 16.09 4.64 15.82 4.64L14.55 4.63998Z" fill="#FFD7C2"/>
<path d="M17.249 13.75C17.1971 13.75 17.1464 13.7339 17.104 13.704C16.8388 13.5696 16.5458 13.4995 16.2485 13.4995C15.9513 13.4995 15.6581 13.5696 15.393 13.704C15.3389 13.7417 15.2721 13.7565 15.2071 13.7451C15.1421 13.7338 15.0842 13.6973 15.0461 13.6434C15.0079 13.5896 14.9926 13.5228 15.0035 13.4578C15.0143 13.3927 15.0505 13.3346 15.104 13.296C15.4544 13.1013 15.8486 12.9991 16.2495 12.9991C16.6504 12.9991 17.0446 13.1013 17.395 13.296C17.438 13.3269 17.47 13.3706 17.4866 13.4209C17.5031 13.4712 17.5033 13.5253 17.487 13.5757C17.4708 13.626 17.439 13.6699 17.3962 13.701C17.3535 13.7322 17.3019 13.749 17.249 13.749V13.75Z" fill="#990838"/>
<path d="M15.9 10.262L15.39 11.8484C15.28 12.1695 15.54 12.5 15.9 12.5H16.67C17.03 12.5 17.29 12.1695 17.18 11.8484L16.65 10.262C16.54 9.91265 16.02 9.91265 15.9 10.262Z" fill="#E5AF93"/>
<path d="M12.99 23.25L21.85 24.79H25.5V27.24C25.5 28.12 25.05 28.95 24.3 29.47C23.79 29.82 23.18 30 22.57 30H22.56C22.13 30 21.71 29.88 21.32 29.68L9.40997 25C9.40997 25 9.97998 22.65 12.99 23.25Z" fill="#F4C6AD"/>
<path d="M19.51 23.3561L10.65 25H7V27.22C7 28.1 7.45 28.93 8.2 29.45C8.71 29.8 9.32 29.98 9.93 29.98H9.94C10.37 29.98 10.79 29.86 11.18 29.66L23.03 24.8961C23.02 24.8961 22.52 22.7561 19.51 23.3561Z" fill="#FFD7C2"/>
<path d="M15.4794 10.251C15.5022 10.3872 15.3881 10.5 15.25 10.5H12.75C12.6119 10.5 12.4978 10.3872 12.5205 10.251C12.6391 9.5411 13.2564 9 14 9C14.7436 9 15.3608 9.5411 15.4794 10.251Z" fill="white"/>
<path d="M19.9618 10.251C19.9845 10.3872 19.8704 10.5 19.7323 10.5H17.2323C17.0942 10.5 16.9801 10.3872 17.0029 10.251C17.1215 9.5411 17.7387 9 18.4823 9C19.2259 9 19.8432 9.5411 19.9618 10.251Z" fill="white"/>
<path d="M15 10.125C15 10.2592 14.9698 10.3863 14.9158 10.5H13.3342C13.2802 10.3863 13.25 10.2592 13.25 10.125C13.25 9.64175 13.6418 9.25 14.125 9.25C14.6082 9.25 15 9.64175 15 10.125Z" fill="#7D4533"/>
<path d="M19.25 10.125C19.25 10.2592 19.2198 10.3863 19.1658 10.5H17.5842C17.5302 10.3863 17.5 10.2592 17.5 10.125C17.5 9.64175 17.8918 9.25 18.375 9.25C18.8582 9.25 19.25 9.64175 19.25 10.125Z" fill="#7D4533"/>
<path d="M14.624 10.12C14.624 10.2721 14.5561 10.4083 14.449 10.5H13.7991C13.6919 10.4083 13.624 10.2721 13.624 10.12C13.624 9.84385 13.8479 9.62 14.124 9.62C14.4002 9.62 14.624 9.84385 14.624 10.12Z" fill="black"/>
<path d="M18.874 10.12C18.874 10.2721 18.8061 10.4083 18.699 10.5H18.0491C17.9419 10.4083 17.874 10.2721 17.874 10.12C17.874 9.84385 18.0979 9.62 18.374 9.62C18.6502 9.62 18.874 9.84385 18.874 10.12Z" fill="black"/>
<path d="M13.8 9.9C13.9104 9.9 14 9.81046 14 9.7C14 9.58954 13.9104 9.5 13.8 9.5C13.6895 9.5 13.6 9.58954 13.6 9.7C13.6 9.81046 13.6895 9.9 13.8 9.9Z" fill="white"/>
<path d="M18.05 9.9C18.1604 9.9 18.25 9.81046 18.25 9.7C18.25 9.58954 18.1604 9.5 18.05 9.5C17.9395 9.5 17.85 9.58954 17.85 9.7C17.85 9.81046 17.9395 9.9 18.05 9.9Z" fill="white"/>
<path d="M16.9573 14.5H15.5427C15.6456 14.2087 15.9234 14 16.25 14C16.5765 14 16.8544 14.2087 16.9573 14.5Z" fill="#F1B99B"/>
<path d="M12.75 8C12.6119 8 12.5 8.11193 12.5 8.25C12.5 8.38807 12.6119 8.5 12.75 8.5H14.75C14.8881 8.5 15 8.38807 15 8.25C15 8.11193 14.8881 8 14.75 8H12.75Z" fill="#212121"/>
<path d="M17.75 8C17.6119 8 17.5 8.11193 17.5 8.25C17.5 8.38807 17.6119 8.5 17.75 8.5H19.75C19.8881 8.5 20 8.38807 20 8.25C20 8.11193 19.8881 8 19.75 8H17.75Z" fill="#212121"/>
</svg>

<svg xmlns="http://www.w3.org/2000/svg" width="32" height="32" fill="none"><path fill="#FF8101" d="M22.513 30c1.653 0 2.987-1.279 2.987-2.849v-3.534c0-4.761-4.142-8.617-9.25-8.617S7 18.856 7 23.617v3.534C7 28.721 8.334 30 9.987 30h12.526Z"/><path fill="#F4C6AD" d="M16.25 19c-1.243 0-2.25-.986-2.25-2.203v-2.594C14 12.986 15.007 12 16.25 12s2.25.986 2.25 2.203v2.594c0 1.217-1.007 2.203-2.25 2.203Z"/><path fill="#FF6723" d="M10.5 25H7v-1.383c0-2.66 1.292-5.037 3.324-6.617h.176v8ZM22 25h3.5v-1.383c0-2.66-1.293-5.037-3.324-6.617H22v8Z"/><path fill="#212121" d="M22.39 5.22c-.29-.51-.75-.86-1.27-1.04-.56-.19-1.05-.55-1.35-1.06A2.336 2.336 0 0 0 17.78 2c-.32 0-.63.07-.91.19-.38.16-.81.16-1.19 0-.29-.12-.59-.19-.92-.19-.83 0-1.56.43-1.97 1.09-.32.51-.81.89-1.38 1.09-.54.19-1.01.57-1.3 1.11-.42.79-.33 1.72.14 2.42.17.25.27.56.27.86v4.08c0 .91.58 1.72 1.44 2.02l1.85.64V8.04c.14-.14.27-.3.37-.49.17-.29.26-.6.3-.91a2.304 2.304 0 0 0 1.79-.54c.41.35.93.56 1.51.56.09 0 .18-.01.28-.02.03.31.13.62.3.91.11.18.23.34.37.49v7.27l1.85-.64c.86-.3 1.44-1.11 1.44-2.02V8.58c0-.31.09-.61.27-.86.49-.72.57-1.69.1-2.5Z"/><path fill="#F4C6AD" d="M13 10.5a1.5 1.5 0 1 1-3 0 1.5 1.5 0 0 1 3 0ZM22.5 10.5a1.5 1.5 0 1 1-3 0 1.5 1.5 0 0 1 3 0Z"/><path fill="#FFD7C2" d="M14.55 4.64a3.34 3.34 0 0 0-3.34 3.34l-.088.992.282 4.205c.264 1.909 1.928 3.323 3.908 3.323h1.887c1.97 0 3.644-1.424 3.908-3.323l.303-4.784.01-.423a1.44 1.44 0 0 0-1.433-1.49H18.65c-.95 0-1.82-.55-2.21-1.42a.675.675 0 0 0-.62-.42h-1.27Z"/><path fill="#990838" d="M17.249 13.75a.252.252 0 0 1-.145-.046 1.892 1.892 0 0 0-1.711 0 .25.25 0 0 1-.289-.408 2.358 2.358 0 0 1 2.291 0 .25.25 0 0 1-.146.453v.001Z"/><path fill="#E5AF93" d="m15.9 10.262-.51 1.586c-.11.321.15.652.51.652h.77c.36 0 .62-.33.51-.652l-.53-1.586c-.11-.35-.63-.35-.75 0Z"/><path fill="#F4C6AD" d="m12.99 23.25 8.86 1.54h3.65v2.45c0 .88-.45 1.71-1.2 2.23-.51.35-1.12.53-1.73.53h-.01c-.43 0-.85-.12-1.24-.32L9.41 25s.57-2.35 3.58-1.75Z"/><path fill="#FFD7C2" d="M19.51 23.356 10.65 25H7v2.22c0 .88.45 1.71 1.2 2.23.51.35 1.12.53 1.73.53h.01c.43 0 .85-.12 1.24-.32l11.85-4.764c-.01 0-.51-2.14-3.52-1.54Z"/><path fill="#fff" d="M15.48 10.251c.022.136-.092.249-.23.249h-2.5c-.138 0-.252-.113-.23-.249a1.5 1.5 0 0 1 2.96 0ZM19.962 10.251c.023.136-.092.249-.23.249h-2.5c-.138 0-.252-.113-.23-.249a1.5 1.5 0 0 1 2.96 0Z"/><path fill="#7D4533" d="M15 10.125c0 .134-.03.261-.084.375h-1.582A.875.875 0 1 1 15 10.125ZM19.25 10.125c0 .134-.03.261-.084.375h-1.582a.875.875 0 1 1 1.666-.375Z"/><path fill="#000" d="M14.624 10.12a.499.499 0 0 1-.175.38h-.65a.499.499 0 0 1 .325-.88.5.5 0 0 1 .5.5ZM18.874 10.12a.499.499 0 0 1-.175.38h-.65a.499.499 0 0 1 .325-.88.5.5 0 0 1 .5.5Z"/><path fill="#fff" d="M13.8 9.9a.2.2 0 1 0 0-.4.2.2 0 0 0 0 .4ZM18.05 9.9a.2.2 0 1 0 0-.4.2.2 0 0 0 0 .4Z"/><path fill="#F1B99B" d="M16.957 14.5h-1.414a.75.75 0 0 1 1.414 0Z"/><path fill="#212121" d="M12.75 8a.25.25 0 1 0 0 .5h2a.25.25 0 1 0 0-.5h-2ZM17.75 8a.25.25 0 1 0 0 .5h2a.25.25 0 1 0 0-.5h-2Z"/></svg>
